polaris-icons/icons/new-icons/NotificationMajor.svg

<svg width="20" height="20" viewBox="0 0 20 20" fill="none" xmlns="http://www.w3.org/2000/svg">
<path fill-rule="evenodd" clip-rule="evenodd" d="M7.25197 14.4239L4.80604 14.1427C2.95137 13.9295 2.42536 11.4844 4.02832 10.5274L4.09324 10.4886C4.96594 9.96761 5.50039 9.02609 5.50039 8.00969V7.5C5.50039 5.01472 7.51511 3 10.0004 3C12.4857 3 14.5004 5.01472 14.5004 7.5V8.00969C14.5004 9.02609 15.0348 9.96761 15.9075 10.4886L15.9725 10.5274C17.5754 11.4844 17.0494 13.9295 15.1947 14.1427L12.652 14.435V14.8C12.652 16.2912 11.4431 17.5 9.95197 17.5C8.4608 17.5 7.25197 16.2912 7.25197 14.8V14.4239ZM11.152 14.5H8.75197V14.8C8.75197 15.4627 9.28922 16 9.95197 16C10.6147 16 11.152 15.4627 11.152 14.8V14.5ZM8.00039 13H12.0004L15.0235 12.6525C15.4529 12.6032 15.5747 12.0369 15.2036 11.8153L15.1386 11.7766C15.0591 11.7291 14.9814 11.6793 14.9056 11.6273C14.7506 11.521 14.6035 11.4055 14.465 11.2818C14.4404 11.2598 14.4162 11.2377 14.3921 11.2152C13.5143 10.395 13.0004 9.23833 13.0004 8.00969V7.5C13.0004 5.84315 11.6572 4.5 10.0004 4.5C8.34354 4.5 7.00039 5.84315 7.00039 7.5V8.00969C7.00039 9.23833 6.48645 10.395 5.60865 11.2152C5.58463 11.2377 5.56033 11.2598 5.53577 11.2818C5.39728 11.4055 5.25023 11.521 5.09517 11.6273C5.01939 11.6793 4.9417 11.7291 4.86216 11.7766L4.79723 11.8153C4.42604 12.0369 4.54784 12.6032 4.97733 12.6525L8.00039 13Z" fill="#4A4A4A"/>
</svg>

<svg viewBox="0 0 20 20" xmlns="http://www.w3.org/2000/svg"><path fill-rule="evenodd" d="m7.252 14.424-2.446-.281c-1.855-.213-2.38-2.659-.778-3.616l.065-.038a2.887 2.887 0 0 0 1.407-2.48v-.509a4.5 4.5 0 0 1 9 0v.51c0 1.016.535 1.958 1.408 2.479l.065.038c1.602.957 1.076 3.403-.778 3.616l-2.543.292v.365a2.7 2.7 0 0 1-5.4 0v-.376Zm3.9.076h-2.4v.3a1.2 1.2 0 0 0 2.4 0v-.3Zm-3.152-1.5h4l3.024-.348a.452.452 0 0 0 .18-.837l-.065-.038a4.414 4.414 0 0 1-.747-.562 4.387 4.387 0 0 1-1.392-3.205v-.51a3 3 0 0 0-6 0v.51a4.387 4.387 0 0 1-2.138 3.767l-.065.038a.452.452 0 0 0 .18.838l3.023.347Z" fill="#5C5F62"/></svg>
